img/svg/profile-icons/envelope-ico.svg

<svg width="22" height="22" viewBox="0 0 22 22" fill="none" xmlns="http://www.w3.org/2000/svg">
<path d="M21.1406 12.5254C21.6153 12.5254 22 12.1406 22 11.666V6.03711C22 4.14167 20.4579 2.59961 18.5625 2.59961H3.4375C1.54206 2.59961 0 4.14167 0 6.03711V15.9629C0 17.8583 1.54206 19.4004 3.4375 19.4004H18.5625C20.4579 19.4004 22 17.8583 22 15.9629C22 15.4883 21.6153 15.1035 21.1406 15.1035C20.666 15.1035 20.2812 15.4883 20.2812 15.9629C20.2812 16.9106 19.5102 17.6816 18.5625 17.6816H3.4375C2.48978 17.6816 1.71875 16.9106 1.71875 15.9629V6.21921L9.18479 10.8618C9.74463 11.2099 10.3723 11.3839 11 11.3839C11.6277 11.3839 12.2554 11.2099 12.8152 10.8618L20.2812 6.21921V11.666C20.2812 12.1406 20.666 12.5254 21.1406 12.5254ZM11.9076 9.40216C11.3478 9.75025 10.6522 9.7503 10.0924 9.40216L2.43586 4.64114C2.71807 4.43807 3.06406 4.31836 3.4375 4.31836H18.5625C18.9359 4.31836 19.2819 4.43811 19.5641 4.64118L11.9076 9.40216Z" fill="#4C51CC"/>
</svg>

<svg width="22" height="22" fill="none" xmlns="http://www.w3.org/2000/svg"><path d="M21.14 12.525a.86.86 0 00.86-.859V6.037A3.441 3.441 0 0018.562 2.6H3.438A3.441 3.441 0 000 6.037v9.926A3.441 3.441 0 003.438 19.4h15.124A3.441 3.441 0 0022 15.963a.86.86 0 10-1.719 0 1.72 1.72 0 01-1.718 1.719H3.438a1.72 1.72 0 01-1.72-1.72V6.22l7.467 4.643c.56.348 1.187.522 1.815.522.628 0 1.255-.174 1.815-.522l7.466-4.643v5.447c0 .475.385.86.86.86zm-9.232-3.123a1.708 1.708 0 01-1.816 0l-7.656-4.76a1.71 1.71 0 011.002-.324h15.124c.374 0 .72.12 1.002.323l-7.656 4.761z" fill="#4C51CC"/></svg>
